modules/hawcons-filled/icons/icon-74-document-search.svg

<?xml version="1.0" encoding="UTF-8" standalone="no"?>
<svg width="32px" height="32px" viewBox="0 0 32 32" version="1.1" xmlns="http://www.w3.org/2000/svg" xmlns:xlink="http://www.w3.org/1999/xlink" xmlns:sketch="http://www.bohemiancoding.com/sketch/ns">
    <!-- Generator: Sketch 3.0.3 (7891) - http://www.bohemiancoding.com/sketch -->
    <title>icon 74 document search</title>
    <desc>Created with Sketch.</desc>
    <defs></defs>
    <g id="Page-1" stroke="none" stroke-width="1" fill="none" fill-rule="evenodd" sketch:type="MSPage">
        <g id="icon-74-document-search" sketch:type="MSArtboardGroup" fill="#929292">
            <path d="M17.308843,22.0159497 C16.5390075,22.6317636 15.5625069,23 14.5,23 C12.0147185,23 10,20.9852815 10,18.5 C10,16.0147185 12.0147185,14 14.5,14 C16.9852815,14 19,16.0147185 19,18.5 C19,19.5625069 18.6317636,20.5390075 18.0159497,21.308843 L23.363961,26.6568542 L22.6568542,27.363961 L17.308843,22.0159497 L17.308843,22.0159497 Z M19,3 L9.0085302,3 C7.8992496,3 7,3.89833832 7,5.00732994 L7,27.9926701 C7,29.1012878 7.89092539,30 8.99742191,30 L24.0025781,30 C25.1057238,30 26,29.1090746 26,28.0025781 L26,11 L21.0059191,11 C19.8980806,11 19,10.1132936 19,9.00189865 L19,3 L19,3 Z M20,3 L20,8.99707067 C20,9.55097324 20.4509752,10 20.990778,10 L26,10 L20,3 L20,3 Z M14.5,22 C16.4329967,22 18,20.4329967 18,18.5 C18,16.5670033 16.4329967,15 14.5,15 C12.5670033,15 11,16.5670033 11,18.5 C11,20.4329967 12.5670033,22 14.5,22 L14.5,22 Z" id="document-search" sketch:type="MSShapeGroup"></path>
        </g>
    </g>
</svg>

<svg width="32" height="32" xmlns="http://www.w3.org/2000/svg"><path d="M17.309 22.016a4.5 4.5 0 1 1 .707-.707l5.348 5.348-.707.707-5.348-5.348zM19 3H9.009C7.899 3 7 3.898 7 5.007v22.986A2 2 0 0 0 8.997 30h15.006C25.106 30 26 29.11 26 28.003V11h-4.994A1.997 1.997 0 0 1 19 9.002V3zm1 0v5.997c0 .554.451 1.003.99 1.003H26l-6-7zm-5.5 19a3.5 3.5 0 1 0 0-7 3.5 3.5 0 0 0 0 7z" fill="#929292" fill-rule="evenodd"/></svg>
